X:54
T:Paddy On The Railroad
S:Bernie Waugh
R:Reel
M:4/4
L:1/8
K:D
|:fe|\
"D"d2dA BAFA|ABdA BAFA|"Bm"ABde f2ed|"Em"B2e2 {^d}"A"egfe|
"D"d2dA BAFA|ABdA BAFA|"Bm"ABde "G"fdec|1"A"dBAF "D"D2:|2\
"A"dBAF"D"D4||
|:\
"D"abag fgfe|d2dA BAFA|"Bm"ABdef2ed|"Em"B2e2 {^d}"A"egfe|
"D"abag fgfe|d2dA BAFA|"Bm"ABde "G"fdec|1"A"dBAF "D"D4:|2\
"A"dBAF "D"D2|]

